!!!OTL: WO IST DENN DAS MAEDCHEN
!!!ARE: Europa, Mitteleuropa, Deutschland, Hessen, Odenwald, Alsbach
!!!SCT: E0530A
!!!YEM: Copyright 1995, estate of Helmut Schaffrath.
**kern
*ICvox
*Ivox
*M3/8
*k[f#c#g#]
*A:
{8e
=1
8.a
16g#
8a
=2
8.b
16a
8b
=3
8.cc#
16dd
8cc#
=4
4b}
{16b
16cc#
=5
8.dd
16ee
8dd
=6
8.cc#
16b
8a
=7
16cc#
16b
8a
8g#
=8
4a}
{16b
16cc#
=9
8.dd
16ee
8dd
=10
8.cc#
16b
8a
=11
16cc#
16b
8a
8g#
=12
4a}
==
!!!AGN: Liebes - Lied
!!!ONB: ESAC (Essen Associative Code) Database: ERK1
!!!AMT: simple triple
!!!AIN: vox
!!!EED: Helmut Schaffrath
!!!EEV: 1.0
*-
